logos/brainlab.svg

<?xml version="1.0" encoding="UTF-8"?>
<!DOCTYPE svg PUBLIC "-//W3C//DTD SVG 1.1//EN" "http://www.w3.org/Graphics/SVG/1.1/DTD/svg11.dtd">
<svg xmlns="http://www.w3.org/2000/svg" version="1.1" width="348px" height="102px" style="shape-rendering:geometricPrecision; text-rendering:geometricPrecision; image-rendering:optimizeQuality; fill-rule:evenodd; clip-rule:evenodd" xmlns:xlink="http://www.w3.org/1999/xlink">
<g><path style="opacity:1" fill="#db3c75" d="M -0.5,-0.5 C 115.5,-0.5 231.5,-0.5 347.5,-0.5C 347.5,33.5 347.5,67.5 347.5,101.5C 231.5,101.5 115.5,101.5 -0.5,101.5C -0.5,67.5 -0.5,33.5 -0.5,-0.5 Z"/></g>
<g><path style="opacity:1" fill="#fef8fa" d="M 56.5,31.5 C 58.5,31.5 60.5,31.5 62.5,31.5C 62.5,32.8333 62.5,34.1667 62.5,35.5C 69.0008,33.5015 75.1674,34.1682 81,37.5C 81.658,39.108 81.158,40.2747 79.5,41C 76.9253,41.958 74.2586,42.458 71.5,42.5C 64.9119,40.8859 58.2452,40.3859 51.5,41C 49.8839,41.6152 48.5505,42.6152 47.5,44C 43.5429,44.1616 42.5429,42.3282 44.5,38.5C 47.7056,35.898 51.3723,34.398 55.5,34C 56.2524,33.3292 56.5858,32.4959 56.5,31.5 Z"/></g>
<g><path style="opacity:1" fill="#e3678f" d="M 70.5,35.5 C 72.4286,35.2308 74.0953,35.7308 75.5,37C 74.6667,37.1667 73.8333,37.3333 73,37.5C 71.6244,37.3158 70.7911,36.6491 70.5,35.5 Z"/></g>
<g><path style="opacity:1" fill="#fdf4f7" d="M 93.5,39.5 C 100.947,39.0714 108.281,39.5714 115.5,41C 119.086,44.8666 119.42,49.0333 116.5,53.5C 121.788,58.2945 121.788,63.1278 116.5,68C 108.92,69.3961 101.253,69.8961 93.5,69.5C 93.5,59.5 93.5,49.5 93.5,39.5 Z"/></g>
<g><path style="opacity:1" fill="#fdf4f7" d="M 125.5,40.5 C 132.841,40.3337 140.174,40.5003 147.5,41C 148.931,41.4652 150.097,42.2986 151,43.5C 151.667,46.1667 151.667,48.8333 151,51.5C 150.5,53.3333 149.333,54.5 147.5,55C 148.667,56.1667 149.833,57.3333 151,58.5C 151.207,62.0894 151.707,65.5894 152.5,69C 150.559,69.7429 148.726,69.5762 147,68.5C 146.667,65.5 146.333,62.5 146,59.5C 145.5,59 145,58.5 144.5,58C 139.845,57.5008 135.179,57.3342 130.5,57.5C 130.5,61.5 130.5,65.5 130.5,69.5C 128.833,69.5 127.167,69.5 125.5,69.5C 125.5,59.8333 125.5,50.1667 125.5,40.5 Z"/></g>
<g><path style="opacity:1" fill="#fdf3f6" d="M 170.5,39.5 C 172.288,39.2148 173.955,39.5481 175.5,40.5C 179.979,49.9557 184.312,59.4557 188.5,69C 183.197,69.6861 180.531,67.1861 180.5,61.5C 175.167,61.5 169.833,61.5 164.5,61.5C 164.469,67.1861 161.803,69.6861 156.5,69C 161.309,59.2164 165.976,49.383 170.5,39.5 Z"/></g>
<g><path style="opacity:1" fill="#f2bbcf" d="M 198.5,40.5 C 197.167,40.5 195.833,40.5 194.5,40.5C 194.5,50.1667 194.5,59.8333 194.5,69.5C 193.506,59.6806 193.173,49.6806 193.5,39.5C 195.415,39.2155 197.081,39.5489 198.5,40.5 Z"/></g>
<g><path style="opacity:1" fill="#fefbfc" d="M 198.5,40.5 C 198.5,50.1667 198.5,59.8333 198.5,69.5C 197.167,69.5 195.833,69.5 194.5,69.5C 194.5,59.8333 194.5,50.1667 194.5,40.5C 195.833,40.5 197.167,40.5 198.5,40.5 Z"/></g>
<g><path style="opacity:1" fill="#e5749c" d="M 210.5,40.5 C 208.833,40.5 207.167,40.5 205.5,40.5C 205.5,50.1667 205.5,59.8333 205.5,69.5C 204.506,59.6806 204.173,49.6806 204.5,39.5C 206.735,39.2053 208.735,39.5386 210.5,40.5 Z"/></g>
<g><path style="opacity:1" fill="#fefbfc" d="M 210.5,40.5 C 216.5,47.5 222.5,54.5 228.5,61.5C 229.499,55.2576 229.833,48.2576 229.5,40.5C 230.833,40.5 232.167,40.5 233.5,40.5C 233.5,50.1667 233.5,59.8333 233.5,69.5C 231.801,69.6602 230.134,69.4935 228.5,69C 222.934,62.0038 217.267,55.1705 211.5,48.5C 211.217,47.7109 210.717,47.0442 210,46.5C 209.5,54.1594 209.334,61.8261 209.5,69.5C 208.167,69.5 206.833,69.5 205.5,69.5C 205.5,59.8333 205.5,50.1667 205.5,40.5C 207.167,40.5 208.833,40.5 210.5,40.5 Z"/></g>
<g><path style="opacity:1" fill="#e77ca2" d="M 233.5,69.5 C 233.5,59.8333 233.5,50.1667 233.5,40.5C 232.167,40.5 230.833,40.5 229.5,40.5C 229.833,48.2576 229.499,55.2576 228.5,61.5C 228.5,54.1667 228.5,46.8333 228.5,39.5C 230.5,39.5 232.5,39.5 234.5,39.5C 234.827,49.6806 234.494,59.6806 233.5,69.5 Z"/></g>
<g><path style="opacity:1" fill="#fefefe" d="M 240.5,40.5 C 241.833,40.5 243.167,40.5 244.5,40.5C 244.174,49.0168 244.507,57.3501 245.5,65.5C 251.167,65.5 256.833,65.5 262.5,65.5C 262.5,66.8333 262.5,68.1667 262.5,69.5C 255.167,69.5 247.833,69.5 240.5,69.5C 240.5,59.8333 240.5,50.1667 240.5,40.5 Z"/></g>
<g><path style="opacity:1" fill="#ed9fbb" d="M 240.5,40.5 C 241.919,39.5489 243.585,39.2155 245.5,39.5C 245.5,48.1667 245.5,56.8333 245.5,65.5C 244.507,57.3501 244.174,49.0168 244.5,40.5C 243.167,40.5 241.833,40.5 240.5,40.5 Z"/></g>
<g><path style="opacity:1" fill="#fdf2f6" d="M 279.5,39.5 C 281.604,39.2011 283.604,39.5344 285.5,40.5C 289.431,50.1941 293.764,59.6941 298.5,69C 296.527,69.4955 294.527,69.6621 292.5,69.5C 292.336,62.5064 288.836,59.8398 282,61.5C 279.5,61.8333 277,62.1667 274.5,62.5C 273.5,64.5 272.5,66.5 271.5,68.5C 269.926,69.6309 268.259,69.7975 266.5,69C 270.974,59.2191 275.308,49.3858 279.5,39.5 Z"/></g>
<g><path style="opacity:1" fill="#fdf3f6" d="M 302.5,39.5 C 309.175,39.3337 315.842,39.5004 322.5,40C 329.165,43.1508 330.165,47.6508 325.5,53.5C 330.788,58.2945 330.788,63.1278 325.5,68C 317.92,69.3961 310.253,69.8961 302.5,69.5C 302.5,59.5 302.5,49.5 302.5,39.5 Z"/></g>
<g><path style="opacity:1" fill="#fdf5f8" d="M 52.5,43.5 C 54.8333,43.5 57.1667,43.5 59.5,43.5C 59.5,44.5 59.5,45.5 59.5,46.5C 61.8568,46.3367 64.1902,46.5034 66.5,47C 67.6034,48.6804 67.2701,50.1804 65.5,51.5C 58.5496,52.2981 51.5496,52.7981 44.5,53C 42.7312,54.0641 41.0645,55.2308 39.5,56.5C 38.5581,56.3918 37.7247,56.0585 37,55.5C 36.2571,53.5594 36.4238,51.7261 37.5,50C 42.016,46.9923 47.016,45.8256 52.5,46.5C 52.5,45.5 52.5,44.5 52.5,43.5 Z"/></g>
<g><path style="opacity:1" fill="#ec9cb9" d="M 111.5,44.5 C 107.167,44.5 102.833,44.5 98.5,44.5C 98.5,46.8333 98.5,49.1667 98.5,51.5C 102.833,51.5 107.167,51.5 111.5,51.5C 107.03,52.4861 102.363,52.8195 97.5,52.5C 97.5,49.5 97.5,46.5 97.5,43.5C 102.363,43.1805 107.03,43.5139 111.5,44.5 Z"/></g>
<g><path style="opacity:1" fill="#db3f76" d="M 111.5,44.5 C 113.484,44.484 114.484,45.484 114.5,47.5C 114.439,49.6528 113.439,50.9862 111.5,51.5C 107.167,51.5 102.833,51.5 98.5,51.5C 98.5,49.1667 98.5,46.8333 98.5,44.5C 102.833,44.5 107.167,44.5 111.5,44.5 Z"/></g>
<g><path style="opacity:1" fill="#db3f76" d="M 130.5,44.5 C 135.511,44.3341 140.511,44.5007 145.5,45C 148.306,47.9372 147.973,50.4372 144.5,52.5C 139.833,52.5 135.167,52.5 130.5,52.5C 130.5,49.8333 130.5,47.1667 130.5,44.5 Z"/></g>
<g><path style="opacity:1" fill="#f1b3c9" d="M 321.5,44.5 C 316.833,44.5 312.167,44.5 307.5,44.5C 307.5,46.8333 307.5,49.1667 307.5,51.5C 306.527,49.0521 306.194,46.3854 306.5,43.5C 311.695,43.1795 316.695,43.5128 321.5,44.5 Z"/></g>
<g><path style="opacity:1" fill="#db3e76" d="M 321.5,44.5 C 323.687,46.2818 324.02,48.4485 322.5,51C 317.511,51.4993 312.511,51.6659 307.5,51.5C 307.5,49.1667 307.5,46.8333 307.5,44.5C 312.167,44.5 316.833,44.5 321.5,44.5 Z"/></g>
<g><path style="opacity:1" fill="#dc457a" d="M 286.5,55.5 C 283.713,56.4767 280.713,56.81 277.5,56.5C 278.434,52.6272 279.934,48.9605 282,45.5C 284.318,48.469 285.818,51.8023 286.5,55.5 Z"/></g>
<g><path style="opacity:1" fill="#df5483" d="M 171.5,45.5 C 172.376,45.3691 173.043,45.7025 173.5,46.5C 175.132,50.09 176.466,53.7567 177.5,57.5C 174.167,57.5 170.833,57.5 167.5,57.5C 168.826,53.5105 170.16,49.5105 171.5,45.5 Z"/></g>
<g><path style="opacity:1" fill="#e77fa4" d="M 211.5,48.5 C 210.833,55.5 210.167,62.5 209.5,69.5C 209.334,61.8261 209.5,54.1594 210,46.5C 210.717,47.0442 211.217,47.7109 211.5,48.5 Z"/></g>
<g><path style="opacity:1" fill="#ec98b6" d="M 130.5,44.5 C 130.5,47.1667 130.5,49.8333 130.5,52.5C 135.167,52.5 139.833,52.5 144.5,52.5C 139.695,53.4872 134.695,53.8205 129.5,53.5C 129.19,50.2869 129.523,47.2869 130.5,44.5 Z"/></g>
<g><path style="opacity:1" fill="#fdf3f7" d="M 50.5,54.5 C 52.1667,54.5 53.8333,54.5 55.5,54.5C 55.5,55.8333 55.5,57.1667 55.5,58.5C 57.2624,58.6427 58.9291,58.3094 60.5,57.5C 63.1047,59.2358 63.1047,61.0692 60.5,63C 58.1902,63.4966 55.8568,63.6633 53.5,63.5C 53.4539,68.8616 50.7872,70.8616 45.5,69.5C 45.8333,67.5 46.1667,65.5 46.5,63.5C 44.0108,63.2978 41.6775,63.7978 39.5,65C 36.7974,68.038 33.7974,70.7046 30.5,73C 27.947,73.8513 25.6137,73.518 23.5,72C 25.5,71.6667 27.5,71.3333 29.5,71C 32.5,67.3333 35.5,63.6667 38.5,60C 41.9638,58.241 45.6304,57.0743 49.5,56.5C 49.8627,55.8165 50.1961,55.1499 50.5,54.5 Z"/></g>
<g><path style="opacity:1" fill="#db3d75" d="M 98.5,56.5 C 103.511,56.3341 108.511,56.5007 113.5,57C 116.399,60.1558 116.065,62.8225 112.5,65C 107.845,65.4992 103.179,65.6658 98.5,65.5C 98.5,62.5 98.5,59.5 98.5,56.5 Z"/></g>
<g><path style="opacity:1" fill="#eb97b5" d="M 286.5,55.5 C 287.043,55.56 287.376,55.8933 287.5,56.5C 284.02,57.8056 280.687,57.8056 277.5,56.5C 280.713,56.81 283.713,56.4767 286.5,55.5 Z"/></g>
<g><path style="opacity:1" fill="#f2b9cd" d="M 321.5,56.5 C 316.833,56.5 312.167,56.5 307.5,56.5C 307.5,59.5 307.5,62.5 307.5,65.5C 306.521,62.3752 306.187,59.0419 306.5,55.5C 311.695,55.1795 316.695,55.5128 321.5,56.5 Z"/></g>
<g><path style="opacity:1" fill="#db3f77" d="M 321.5,56.5 C 322.496,56.4142 323.329,56.7476 324,57.5C 324.758,59.7695 324.591,61.9361 323.5,64C 318.292,65.3967 312.959,65.8967 307.5,65.5C 307.5,62.5 307.5,59.5 307.5,56.5C 312.167,56.5 316.833,56.5 321.5,56.5 Z"/></g>
</svg>

<svg xmlns="http://www.w3.org/2000/svg" width="348" height="102" style="shape-rendering:geometricPrecision;text-rendering:geometricPrecision;image-rendering:optimizeQuality;fill-rule:evenodd;clip-rule:evenodd"><path style="opacity:1" fill="#db3c75" d="M-.5-.5h348v102H-.5V-.5z"/><path style="opacity:1" fill="#fef8fa" d="M56.5 31.5h6v4c6.5-1.998 12.667-1.332 18.5 2 .658 1.608.158 2.775-1.5 3.5a23.814 23.814 0 0 1-8 1.5 60.446 60.446 0 0 0-20-1.5 8.905 8.905 0 0 0-4 3c-3.957.162-4.957-1.672-3-5.5 3.206-2.602 6.872-4.102 11-4.5.752-.67 1.086-1.504 1-2.5z"/><path style="opacity:1" fill="#e3678f" d="M70.5 35.5c1.929-.27 3.595.23 5 1.5l-2.5.5c-1.376-.184-2.209-.85-2.5-2z"/><path style="opacity:1" fill="#fdf4f7" d="M93.5 39.5a87.099 87.099 0 0 1 22 1.5c3.586 3.867 3.92 8.033 1 12.5 5.288 4.794 5.288 9.628 0 14.5a98.735 98.735 0 0 1-23 1.5v-30zM125.5 40.5c7.341-.166 14.674 0 22 .5a6.977 6.977 0 0 1 3.5 2.5 16.242 16.242 0 0 1 0 8c-.5 1.833-1.667 3-3.5 3.5l3.5 3.5c.207 3.59.707 7.09 1.5 10.5-1.941.743-3.774.576-5.5-.5l-1-9-1.5-1.5a98.432 98.432 0 0 0-14-.5v12h-5v-29z"/><path style="opacity:1" fill="#fdf3f6" d="M170.5 39.5c1.788-.285 3.455.048 5 1a1084.813 1084.813 0 0 1 13 28.5c-5.303.686-7.969-1.814-8-7.5h-16c-.031 5.686-2.697 8.186-8 7.5a1184.408 1184.408 0 0 0 14-29.5z"/><path style="opacity:1" fill="#f2bbcf" d="M198.5 40.5h-4v29c-.994-9.82-1.327-19.82-1-30 1.915-.285 3.581.049 5 1z"/><path style="opacity:1" fill="#fefbfc" d="M198.5 40.5v29h-4v-29h4z"/><path style="opacity:1" fill="#e5749c" d="M210.5 40.5h-5v29c-.994-9.82-1.327-19.82-1-30 2.235-.295 4.235.039 6 1z"/><path style="opacity:1" fill="#fefbfc" d="m210.5 40.5 18 21c.999-6.242 1.333-13.242 1-21h4v29a12.935 12.935 0 0 1-5-.5 652.015 652.015 0 0 0-17-20.5c-.283-.79-.783-1.456-1.5-2-.5 7.66-.666 15.326-.5 23h-4v-29h5z"/><path style="opacity:1" fill="#e77ca2" d="M233.5 69.5v-29h-4c.333 7.758-.001 14.758-1 21v-22h6c.327 10.18-.006 20.18-1 30z"/><path style="opacity:1" fill="#fefefe" d="M240.5 40.5h4c-.326 8.517.007 16.85 1 25h17v4h-22v-29z"/><path style="opacity:1" fill="#ed9fbb" d="M240.5 40.5c1.419-.951 3.085-1.285 5-1v26c-.993-8.15-1.326-16.483-1-25h-4z"/><path style="opacity:1" fill="#fdf2f6" d="M279.5 39.5a9.864 9.864 0 0 1 6 1 366.233 366.233 0 0 0 13 28.5 18.437 18.437 0 0 1-6 .5c-.164-6.994-3.664-9.66-10.5-8l-7.5 1-3 6c-1.574 1.13-3.241 1.297-5 .5a1153.41 1153.41 0 0 0 13-29.5z"/><path style="opacity:1" fill="#fdf3f6" d="M302.5 39.5c6.675-.166 13.342 0 20 .5 6.665 3.15 7.665 7.65 3 13.5 5.288 4.794 5.288 9.628 0 14.5a98.735 98.735 0 0 1-23 1.5v-30z"/><path style="opacity:1" fill="#fdf5f8" d="M52.5 43.5h7v3c2.357-.163 4.69.003 7 .5 1.103 1.68.77 3.18-1 4.5-6.95.798-13.95 1.298-21 1.5a43.591 43.591 0 0 0-5 3.5 4.938 4.938 0 0 1-2.5-1c-.743-1.94-.576-3.774.5-5.5 4.516-3.008 9.516-4.174 15-3.5v-3z"/><path style="opacity:1" fill="#ec9cb9" d="M111.5 44.5h-13v7h13c-4.47.986-9.137 1.32-14 1v-9c4.863-.32 9.53.014 14 1z"/><path style="opacity:1" fill="#db3f76" d="M111.5 44.5c1.984-.016 2.984.984 3 3-.061 2.153-1.061 3.486-3 4h-13v-7h13zM130.5 44.5c5.011-.166 10.011 0 15 .5 2.806 2.937 2.473 5.437-1 7.5h-14v-8z"/><path style="opacity:1" fill="#f1b3c9" d="M321.5 44.5h-14v7c-.973-2.448-1.306-5.115-1-8 5.195-.32 10.195.013 15 1z"/><path style="opacity:1" fill="#db3e76" d="M321.5 44.5c2.187 1.782 2.52 3.949 1 6.5-4.989.5-9.989.666-15 .5v-7h14z"/><path style="opacity:1" fill="#dc457a" d="M286.5 55.5c-2.787.977-5.787 1.31-9 1a39.337 39.337 0 0 1 4.5-11 22.717 22.717 0 0 1 4.5 10z"/><path style="opacity:1" fill="#df5483" d="M171.5 45.5c.876-.13 1.543.203 2 1a74.443 74.443 0 0 1 4 11h-10c1.326-3.99 2.66-7.99 4-12z"/><path style="opacity:1" fill="#e77fa4" d="m211.5 48.5-2 21c-.166-7.674 0-15.34.5-23 .717.544 1.217 1.21 1.5 2z"/><path style="opacity:1" fill="#ec98b6" d="M130.5 44.5v8h14c-4.805.987-9.805 1.32-15 1-.31-3.213.023-6.213 1-9z"/><path style="opacity:1" fill="#fdf3f7" d="M50.5 54.5h5v4a9.106 9.106 0 0 0 5-1c2.605 1.736 2.605 3.57 0 5.5-2.31.497-4.643.663-7 .5-.046 5.362-2.713 7.362-8 6l1-6c-2.49-.202-4.822.298-7 1.5a51.045 51.045 0 0 1-9 8c-2.553.851-4.886.518-7-1l6-1 9-11a35.712 35.712 0 0 1 11-3.5c.363-.684.696-1.35 1-2z"/><path style="opacity:1" fill="#db3d75" d="M98.5 56.5c5.011-.166 10.011 0 15 .5 2.899 3.156 2.565 5.822-1 8-4.655.5-9.321.666-14 .5v-9z"/><path style="opacity:1" fill="#eb97b5" d="M286.5 55.5c.543.06.876.393 1 1-3.48 1.306-6.813 1.306-10 0 3.213.31 6.213-.023 9-1z"/><path style="opacity:1" fill="#f2b9cd" d="M321.5 56.5h-14v9c-.979-3.125-1.313-6.458-1-10 5.195-.32 10.195.013 15 1z"/><path style="opacity:1" fill="#db3f77" d="M321.5 56.5c.996-.086 1.829.248 2.5 1 .758 2.27.591 4.436-.5 6.5-5.208 1.397-10.541 1.897-16 1.5v-9h14z"/></svg>
